HTML/img/Semaphore/Semaphore_Whiskey.svg

<?xml version="1.0" encoding="UTF-8" standalone="no"?>
<!-- Created with Inkscape (http://www.inkscape.org/) -->
<svg
   xmlns:dc="http://purl.org/dc/elements/1.1/"
   xmlns:cc="http://web.resource.org/cc/"
   xmlns:rdf="http://www.w3.org/1999/02/22-rdf-syntax-ns#"
   xmlns:svg="http://www.w3.org/2000/svg"
   xmlns="http://www.w3.org/2000/svg"
   xmlns:sodipodi="http://inkscape.sourceforge.net/DTD/sodipodi-0.dtd"
   xmlns:inkscape="http://www.inkscape.org/namespaces/inkscape"
   width="600"
   height="500"
   id="svg2"
   sodipodi:version="0.32"
   inkscape:version="0.43"
   version="1.0"
   sodipodi:docbase="C:\Documents and Settings\David Nelson\Archives\Svg"
   sodipodi:docname="Semaphore Whiskey.svg">
  <defs
     id="defs4" />
  <sodipodi:namedview
     id="base"
     pagecolor="#ffffff"
     bordercolor="#666666"
     borderopacity="1.0"
     inkscape:pageopacity="0.0"
     inkscape:pageshadow="2"
     inkscape:zoom="0.5"
     inkscape:cx="277.85308"
     inkscape:cy="120.82915"
     inkscape:document-units="px"
     inkscape:current-layer="layer4"
     showgrid="true"
     inkscape:grid-points="true"
     inkscape:window-width="756"
     inkscape:window-height="540"
     inkscape:window-x="365"
     inkscape:window-y="436" />
  <metadata
     id="metadata7">
    <rdf:RDF>
      <cc:Work
         rdf:about="">
        <dc:format>image/svg+xml</dc:format>
        <dc:type
           rdf:resource="http://purl.org/dc/dcmitype/StillImage" />
      </cc:Work>
    </rdf:RDF>
  </metadata>
  <g
     inkscape:label="Head and Torso"
     inkscape:groupmode="layer"
     id="layer1">
    <path
       sodipodi:type="arc"
       style="opacity:1;fill:#000000;fill-opacity:1;fill-rule:evenodd;stroke:none;stroke-width:2.5;stroke-miterlimit:4;stroke-dasharray:none;stroke-opacity:1"
       id="path7712"
       sodipodi:cx="250"
       sodipodi:cy="200"
       sodipodi:rx="25"
       sodipodi:ry="25"
       d="M 275 200 A 25 25 0 1 1  225,200 A 25 25 0 1 1  275 200 z"
       transform="translate(50,10)" />
    <rect
       style="opacity:1;fill:#000000;fill-opacity:1;fill-rule:evenodd;stroke:none;stroke-width:2.5;stroke-miterlimit:4;stroke-dasharray:none;stroke-opacity:1"
       id="rect7718"
       width="70"
       height="160"
       x="265"
       y="240"
       rx="20"
       ry="21.333334" />
  </g>
  <g
     inkscape:groupmode="layer"
     id="layer4"
     inkscape:label="Left Hand"
     style="display:inline">
    <g
       id="g11871">
      <rect
         ry="10"
         rx="10"
         y="240"
         x="340"
         height="20"
         width="70"
         id="rect7724"
         style="fill:#000000;fill-opacity:1;fill-rule:evenodd;stroke:none;stroke-width:2.5;stroke-miterlimit:4;stroke-dasharray:none;stroke-opacity:1" />
      <rect
         y="245"
         x="400"
         height="10"
         width="200"
         id="rect7726"
         style="fill:#000000;fill-opacity:1;fill-rule:evenodd;stroke:#000000;stroke-width:1;stroke-miterlimit:4;stroke-dasharray:none;stroke-opacity:1" />
      <path
         style="fill:#ffff00;fill-opacity:1;fill-rule:evenodd;stroke:none;stroke-width:0.5;stroke-miterlimit:4;stroke-opacity:1"
         d="M 510,345 L 510,255 L 600,255 L 600,345 L 510,345 z "
         id="path7785" />
      <path
         id="path7787"
         d="M 510,255 L 600,255 L 600,345 L 510,255 z "
         style="fill:#ff0000;fill-opacity:1;fill-rule:evenodd;stroke:none;stroke-width:0.5;stroke-miterlimit:4;stroke-opacity:1" />
      <path
         id="path11838"
         d="M 510,345 L 510,255 L 600,255 L 600,345 L 510,345 z "
         style="fill:#ffff00;fill-opacity:0;fill-rule:evenodd;stroke:#000000;stroke-width:1;stroke-linejoin:round;stroke-miterlimit:4;stroke-dasharray:none;stroke-opacity:1" />
    </g>
  </g>
  <g
     inkscape:groupmode="layer"
     id="layer5"
     inkscape:label="Right Hand"
     style="display:inline">
    <g
       id="g12009">
      <rect
         transform="matrix(0.707107,-0.707107,0.707107,0.707107,0,0)"
         style="fill:#000000;fill-opacity:1;fill-rule:evenodd;stroke:none;stroke-width:2.5;stroke-miterlimit:4;stroke-dasharray:none;stroke-opacity:1"
         id="rect11644"
         width="70.000023"
         height="20.000006"
         x="12.627343"
         y="366.18088"
         rx="10.000003"
         ry="10.000003" />
      <rect
         transform="matrix(0.707107,-0.707107,0.707107,0.707107,0,0)"
         style="fill:#000000;fill-opacity:1;fill-rule:evenodd;stroke:#000000;stroke-width:0.9999997;stroke-miterlimit:4;stroke-dasharray:none;stroke-opacity:1"
         id="rect11646"
         width="200.00006"
         height="10.000003"
         x="72.627365"
         y="371.18088" />
      <path
         id="path11650"
         d="M 462.31228,204.03815 L 398.67265,140.39852 L 462.31228,76.758885 L 525.95191,140.39852 L 462.31228,204.03815 z "
         style="fill:#ffff00;fill-opacity:1;fill-rule:evenodd;stroke:none;stroke-width:0.5;stroke-miterlimit:4;stroke-opacity:1" />
      <path
         style="fill:#ff0000;fill-opacity:1;fill-rule:evenodd;stroke:none;stroke-width:0.5;stroke-miterlimit:4;stroke-opacity:1"
         d="M 398.67265,140.39852 L 462.31228,76.758885 L 525.95191,140.39852 L 398.67265,140.39852 z "
         id="path11652" />
      <path
         style="fill:#ffff00;fill-opacity:0;fill-rule:evenodd;stroke:#000000;stroke-width:1;stroke-linejoin:round;stroke-miterlimit:4;stroke-dasharray:none;stroke-opacity:1"
         d="M 462.31228,204.03815 L 398.67265,140.39852 L 462.31228,76.758885 L 525.95191,140.39852 L 462.31228,204.03815 z "
         id="path12005" />
    </g>
  </g>
</svg>

<svg xmlns="http://www.w3.org/2000/svg" width="600" height="500" version="1">
    <g fill-rule="evenodd">
        <path d="M325 210a25 25 0 1 1-50 0 25 25 0 1 1 50 0z"/>
        <rect width="70" height="160" x="265" y="240" rx="20" ry="21.333"/>
    </g>
    <rect width="70" height="20" x="340" y="240" fill-rule="evenodd" rx="10" ry="10"/>
    <path fill-rule="evenodd" stroke="#000" d="M400 245h200v10H400z"/>
    <path fill="#ff0" fill-rule="evenodd" d="M510 345v-90h90v90h-90z"/>
    <path fill="red" fill-rule="evenodd" d="M510 255h90v90l-90-90z"/>
    <path fill="none" stroke="#000" stroke-linejoin="round" d="M510 345v-90h90v90h-90z"/>
    <g>
        <rect width="70" height="20" x="12.627" y="366.181" fill-rule="evenodd" rx="10" ry="10" transform="rotate(-45)"/>
        <path fill-rule="evenodd" stroke="#000" d="M313.82 211.11L455.24 69.688l7.071 7.071-141.421 141.422z"/>
        <path fill="#ff0" fill-rule="evenodd" d="M462.312 204.038l-63.64-63.64 63.64-63.64 63.64 63.64-63.64 63.64z"/>
        <path fill="red" fill-rule="evenodd" d="M398.673 140.399l63.64-63.64 63.639 63.64h-127.28z"/>
        <path fill="none" stroke="#000" stroke-linejoin="round" d="M462.312 204.038l-63.64-63.64 63.64-63.64 63.64 63.64-63.64 63.64z"/>
    </g>
</svg>
